private/icons/dark/inode-directory.svg

<svg viewBox="0 0 32 32" xmlns="http://www.w3.org/2000/svg"><path d="m28.8 18.6c0 .2-.1.3-.2.5a.76.76 0 0 0 .2-.5" fill="#fff"/><path d="m29.3 17.4a2.93 2.93 0 0 1 -.6 1.7l-4.1 5.1a4 4 0 0 1 -1.6 1.2 4.92 4.92 0 0 1 -2 .5h-15.2a2.94 2.94 0 0 1 -2.2-.9 2.94 2.94 0 0 1 -.9-2.2v-13.5a2.94 2.94 0 0 1 .9-2.2 3.1 3.1 0 0 1 2.2-.9h4.5a3.07 3.07 0 0 1 3.1 3.1v.4h7.6a3.07 3.07 0 0 1 3.1 3.1v2.2h2.7a3.19 3.19 0 0 1 1.4.3 2.19 2.19 0 0 1 .9 1 4.25 4.25 0 0 1 .2 1.1zm-17.7-2.3h10.7v-2.2a1 1 0 0 0 -.4-.9 1.22 1.22 0 0 0 -.9-.4h-8a1 1 0 0 1 -.9-.4 1.22 1.22 0 0 1 -.4-.9v-1a1 1 0 0 0 -.4-.9 1.43 1.43 0 0 0 -1-.4h-4.5a1 1 0 0 0 -.9.4 1.49 1.49 0 0 0 -.4.9v11.9l3.5-4.4a4 4 0 0 1 1.6-1.2 5.34 5.34 0 0 1 2-.5z" fill="#2485ce"/></svg>

<svg id="Layer_1" data-name="Layer 1" xmlns="http://www.w3.org/2000/svg" viewBox="0 0 32 32"><defs><style>.cls-1{fill:#fff;}.cls-2{fill:#2485ce;}</style></defs><path class="cls-1" d="M28.8,18.6h0c0,.2-.1.3-.2.5a.76.76,0,0,0,.2-.5"/><path class="cls-2" d="M29.3,17.4a2.93,2.93,0,0,1-.6,1.7l-4.1,5.1A4,4,0,0,1,23,25.4a4.92,4.92,0,0,1-2,.5H5.8A2.94,2.94,0,0,1,3.6,25a2.94,2.94,0,0,1-.9-2.2V9.3a2.94,2.94,0,0,1,.9-2.2,3.1,3.1,0,0,1,2.2-.9h4.5a3.07,3.07,0,0,1,3.1,3.1v.4H21a3.07,3.07,0,0,1,3.1,3.1V15h2.7a3.19,3.19,0,0,1,1.4.3,2.19,2.19,0,0,1,.9,1A4.25,4.25,0,0,1,29.3,17.4ZM11.6,15.1H22.3V12.9a1,1,0,0,0-.4-.9,1.22,1.22,0,0,0-.9-.4H13a1,1,0,0,1-.9-.4,1.22,1.22,0,0,1-.4-.9v-1a1,1,0,0,0-.4-.9,1.43,1.43,0,0,0-1-.4H5.8a1,1,0,0,0-.9.4,1.49,1.49,0,0,0-.4.9V21.2L8,16.8a4,4,0,0,1,1.6-1.2A5.34,5.34,0,0,1,11.6,15.1Z"/></svg>
